app/images/markers/numbered/4.svg

<svg height="46" viewBox="0 0 40 46" width="40" xmlns="http://www.w3.org/2000/svg"><g fill="none" fill-rule="evenodd"><path d="m20 46.037c1.732 0 3.412-6.257 5.015-6.67 8.618-2.227 14.985-10.054 14.985-19.367 0-11.046-8.954-20-20-20s-20 8.954-20 20c0 9.318 6.372 17.147 14.996 19.37 1.6.41 3.276 6.667 5.004 6.667z" fill="#000" fill-rule="nonzero"/><path d="m20 46.037c1.732 0 3.412-6.257 5.015-6.67 8.618-2.227 14.985-10.054 14.985-19.367 0-11.046-8.954-20-20-20s-20 8.954-20 20c0 9.318 6.372 17.147 14.996 19.37 1.6.41 3.276 6.667 5.004 6.667z" fill="#00a862"/><g transform="translate(11 8)"><path d="m17.688 2.35c-.108-.46-.587-1.65-1.5-1.65h-14.378c-.912 0-1.39 1.19-1.503 1.682l-.295 1.634c-.033.188.018.38.14.527.122.146.302.23.493.23h.824l1.158 16.44c.06.962.863 1.715 1.83 1.715h9.09c.967 0 1.77-.753 1.83-1.71l1.156-16.445h.826c.192 0 .372-.084.494-.23s.173-.34.14-.527l-.302-1.666z" fill="#fff" fill-rule="nonzero"/><path d="m9.54276368 17v-2.5073242h-4.38623047v-1.4091797l4.3100586-5.47802735h1.72021479v5.47802735h1.0981446v1.4091797h-1.0981446v2.5073242zm-2.88183594-3.9165039h2.91992188v-3.68164063z" fill="#4a4a4a"/></g></g></svg>

<?xml version="1.0" encoding="UTF-8"?>
<svg width="40px" height="46px" viewBox="0 0 40 46" version="1.1" xmlns="http://www.w3.org/2000/svg" xmlns:xlink="http://www.w3.org/1999/xlink">
    <!-- Generator: Sketch 47.1 (45422) - http://www.bohemiancoding.com/sketch -->
    <title>starbucks-marker</title>
    <desc>Created with Sketch.</desc>
    <defs></defs>
    <g id="Page-1" stroke="none" stroke-width="1" fill="none" fill-rule="evenodd">
        <g id="starbucks-marker">
            <g id="Group">
                <g id="b-link">
                    <g id="b">
                        <g id="path-1-link" fill-rule="nonzero" fill="#000000">
                            <path d="M20,46.037 C21.732,46.037 23.412,39.78 25.015,39.367 C33.633,37.14 40,29.313 40,20 C40,8.954 31.046,0 20,0 C8.954,0 0,8.954 0,20 C0,29.318 6.372,37.147 14.996,39.37 C16.596,39.78 18.272,46.037 20,46.037 Z" id="path-1"></path>
                        </g>
                        <g id="path-1-link" fill="#00A862">
                            <path d="M20,46.037 C21.732,46.037 23.412,39.78 25.015,39.367 C33.633,37.14 40,29.313 40,20 C40,8.954 31.046,0 20,0 C8.954,0 0,8.954 0,20 C0,29.318 6.372,37.147 14.996,39.37 C16.596,39.78 18.272,46.037 20,46.037 Z" id="path-1"></path>
                        </g>
                    </g>
                </g>
            </g>
            <g id="Group" transform="translate(11.000000, 8.000000)">
                <g id="d-link">
                    <path d="M17.688,2.35 C17.58,1.89 17.101,0.7 16.188,0.7 L1.81,0.7 C0.898,0.7 0.42,1.89 0.307,2.382 L0.012,4.016 C-0.021,4.204 0.03,4.396 0.152,4.543 C0.274,4.689 0.454,4.773 0.645,4.773 L1.469,4.773 L2.627,21.213 C2.687,22.175 3.49,22.928 4.457,22.928 L13.547,22.928 C14.514,22.928 15.317,22.175 15.377,21.218 L16.533,4.773 L17.359,4.773 C17.551,4.773 17.731,4.689 17.853,4.543 C17.975,4.397 18.026,4.203 17.993,4.016 L17.691,2.35 L17.688,2.35 Z" id="d" fill="#FFFFFF" fill-rule="nonzero"></path>
                    <path d="M9.54276368,17 L9.54276368,14.4926758 L5.15653321,14.4926758 L5.15653321,13.0834961 L9.46659181,7.60546875 L11.1868066,7.60546875 L11.1868066,13.0834961 L12.2849512,13.0834961 L12.2849512,14.4926758 L11.1868066,14.4926758 L11.1868066,17 L9.54276368,17 Z M6.66092774,13.0834961 L9.58084962,13.0834961 L9.58084962,9.40185547 L6.66092774,13.0834961 Z" id="4" fill="#4A4A4A"></path>
                </g>
            </g>
        </g>
    </g>
</svg>
